X:0883
T:Quadrilles Set No. 5 (#5). Roose.0883
B:Roose MS, poss. Manchester, mid-late 19th century.
Z:Village Music Project.2019.Greg Bradfield-Smith.
N:NB This and the following measure might be better scored with a key signature of A major.
M:2/4
L:1/16
Q:1/4=120
K:G clef=treble
z2|d2d>d|d2d>d|d2d>d d2g2|G2B2 e2d2|d2c2 A4|
c2c>c e2e>e|c2c>c A2A>A|F2e2 d2F2|A4G2!fine!||
z2|B4 c2^c2|d2g2 B2d2|A2e2 d2F2|G2A2 B2c2|
B4c2^c2|d2e2 f2g2|F2e2 d2F2|A4G2!D.S.!||
z2|B2B>B B2B>B|B2B>B B2e2|d2e2 a2g2|f2b2 B4|
B2B>B B2B>B|B2B>B B2g2|f2e2 ^defe|f4e2!D.S.! !D.C.!|]

